components/Common/Svg/svgs/iOSAppDevelopment.svg

<svg
  width="90"
  height="90"
  viewBox="0 0 90 90"
  fill="none"
  xmlns="http://www.w3.org/2000/svg"
>
  <circle
    opacity="0.5"
    cx="45"
    cy="45"
    r="45"
    fill="#FFE603"
  ></circle>
  <path
    d="M55.1027 54.3179C53.6632 54.0759 52.2649 53.8741 51.1133 53.2286C51.1133 53.2286 51.8125 50.6059 51.8536 50.5656C53.7455 51.2112 56.4188 52.0585 58.1873 51.2515C59.1744 50.7673 59.6268 49.8797 59.5034 48.871C59.3389 47.7009 58.5164 47.0553 56.2954 46.2484C53.8277 45.3204 52.3471 44.231 51.7713 42.7785C51.4834 42.0522 51.4012 41.1645 51.5246 40.3576C51.8947 38.1385 53.6632 36.6052 56.3365 36.1211C57.118 36 58.8042 36 59.6268 36.1211C60.8195 36.3228 62.1768 36.7666 62.1768 36.928C62.1768 37.0087 61.4776 39.3892 61.4364 39.4699C60.2437 39.0261 58.9688 38.7033 57.8172 38.663C56.2543 38.6226 54.5269 39.5506 54.8148 41.1645C55.0205 42.1732 55.6785 42.6574 58.1051 43.6258C59.9147 44.352 60.7373 44.8362 61.4776 45.5625C62.5058 46.5712 62.8348 47.7412 62.8348 48.9113C62.8348 49.8797 62.7525 50.3235 62.3824 51.0901C61.5187 52.9058 59.7913 53.9548 57.1591 54.2373C56.6656 54.318 55.514 54.3583 55.1027 54.3179Z"
    fill="#171717"
  ></path>
  <path
    d="M41.781 36C40.3826 36 39.1899 36.2824 38.0383 36.8473C35.036 38.2998 33.3086 41.4066 33.3086 45.28C33.3086 49.1534 34.9949 52.1795 37.9972 53.5513C38.8198 53.9145 39.6423 54.1162 40.8762 54.2776C41.4931 54.3179 42.0689 54.3583 42.6858 54.2776C43.9197 54.1162 44.7422 53.9145 45.5648 53.5513C48.5671 52.1392 50.2534 49.1534 50.2534 45.28C50.2534 41.4066 48.526 38.2998 45.5237 36.8473C44.3309 36.2824 43.1382 36 41.781 36ZM42.9737 38.7437C44.7834 39.2278 46.0583 40.8014 46.593 43.1416C46.9632 44.7555 46.8398 46.6518 46.3462 48.1447C45.5648 50.4446 43.8785 51.776 41.781 51.7357C39.7246 51.776 37.9972 50.4446 37.2158 48.1447C36.7222 46.6518 36.5989 44.7958 36.969 43.1416C37.4625 40.8014 38.7786 39.2278 40.5883 38.7437C41.3697 38.5823 42.1923 38.5823 42.9737 38.7437Z"
    fill="#171717"
  ></path>
  <path
    d="M29.8096 36C28.8226 36 28 36.807 28 37.7753C28 38.7437 28.8226 39.5506 29.8096 39.5506C30.7967 39.5506 31.6193 38.7437 31.6193 37.7753C31.6193 36.807 30.7967 36 29.8096 36ZM28.1234 41.3663V54.3179H31.4959V41.3663H28.1234Z"
    fill="#171717"
  ></path>
</svg>

<svg width="90" height="90" viewBox="0 0 90 90" fill="none" xmlns="http://www.w3.org/2000/svg"><circle opacity=".5" cx="45" cy="45" r="45" fill="#FFE603"/><path d="M55.103 54.318c-1.44-.242-2.838-.444-3.99-1.09 0 0 .7-2.622.74-2.662 1.892.645 4.566 1.492 6.334.685.987-.484 1.44-1.371 1.316-2.38-.164-1.17-.987-1.816-3.208-2.623-2.467-.928-3.948-2.017-4.524-3.47-.288-.726-.37-1.614-.246-2.42.37-2.22 2.138-3.753 4.812-4.237.781-.121 2.467-.121 3.29 0 1.192.202 2.55.646 2.55.807 0 .08-.7 2.461-.74 2.542-1.193-.444-2.468-.767-3.62-.807-1.563-.04-3.29.888-3.002 2.502.206 1.008.864 1.492 3.29 2.46 1.81.727 2.632 1.211 3.373 1.938 1.028 1.008 1.357 2.178 1.357 3.348 0 .969-.083 1.413-.453 2.18-.863 1.815-2.59 2.864-5.223 3.146-.493.081-1.645.121-2.056.08ZM41.781 36c-1.398 0-2.591.282-3.743.847-3.002 1.453-4.73 4.56-4.73 8.433s1.687 6.9 4.69 8.271c.822.363 1.644.565 2.878.727.617.04 1.193.08 1.81 0 1.234-.162 2.056-.364 2.879-.727 3.002-1.412 4.688-4.398 4.688-8.271 0-3.873-1.727-6.98-4.73-8.433A8.468 8.468 0 0 0 41.782 36Zm1.193 2.744c1.81.484 3.084 2.057 3.619 4.398.37 1.613.247 3.51-.247 5.003-.781 2.3-2.467 3.631-4.565 3.59-2.056.041-3.784-1.29-4.565-3.59a9.767 9.767 0 0 1-.247-5.003c.493-2.34 1.81-3.914 3.62-4.398a5.936 5.936 0 0 1 2.385 0ZM29.81 36c-.987 0-1.81.807-1.81 1.775 0 .969.823 1.776 1.81 1.776.987 0 1.81-.807 1.81-1.776 0-.968-.823-1.775-1.81-1.775Zm-1.687 5.366v12.952h3.373V41.366h-3.373Z" fill="#171717"/></svg>
